assets/Cobi_3.CUBE
TITLE "Generated by Resolve"
LUT_3D_SIZE 33
0 0.0131075 0.0207675
0 0.0128786 0.0205692
0 0.0130007 0.020676
0 0.0130617 0.020737
0 0.0129702 0.0206607
0.0129549 0.0126192 0.0203555
0.0520638 0.0118563 0.0196994
0.0939193 0.010605 0.018616
0.13875 0.00929274 0.0170748
0.186877 0.00697337 0.0150759
0.237232 0.00370794 0.012192
0.284596 0.000976577 0.0099031
0.332647 0 0.00700389
0.3785 0 0.00407416
0.416068 0 0.0012665
0.452293 0 0
0.488548 0 0
0.522301 0 0
0.553933 0 0
0.584146 0 0
0.611795 0 0
0.637995 0 0
0.663066 0 0
0.686961 0 0
0.709712 0 0
0.73138 0 0
0.752102 0 0
0.772137 0 0
0.791699 0 0
0.811002 0 0
0.830243 0 0
0.849638 0 0
0.869383 0 0
0 0.0359197 0.0205844
0 0.0359503 0.0206149
0 0.0359655 0.0206302
0 0.0359655 0.0206302
0 0.0358129 0.0204929
0.0125887 0.0354009 0.0201572
0.051667 0.0346227 0.0194858
0.0935073 0.0333562 0.0183871
0.13991 0.0311589 0.0165255
0.192187 0.0277409 0.0136416
0.247089 0.02327 0.00991836
0.284428 0.0234073 0.00979629
0.332601 0.0201114 0.00697337
0.378576 0.0168307 0.0041352
0.416251 0.0136873 0.00141909
0.452628 0.0105898 0
0.489006 0.00793469 0
0.522896 0.00483711 0
0.55465 0.00189212 0
0.585046 0 0
0.612787 0 0
0.6392 0 0
0.664485 0 0
0.688609 0 0
0.711604 0 0
0.733547 0 0
0.754543 0 0
0.774868 0 0
0.79472 0 0
0.814313 0 0
0.833844 0 0
0.853544 0 0
0.873594 0.000732433 0
0 0.0587015 0.020676
0 0.0586709 0.0206607
0 0.0586557 0.0206455
0 0.0586252 0.0206302
0 0.0584726 0.0204929
0.012604 0.0580911 0.0201572
0.0531167 0.0569619 0.0192721
0.0990311 0.0546426 0.0174868
0.150103 0.0512245 0.0148623
0.206104 0.0468757 0.01149
0.263554 0.0418402 0.00756847
0.290898 0.0449531 0.0091249
0.33344 0.0434119 0.00750744
0.379553 0.0402838 0.00480659
0.417258 0.0373236 0.00224308
0.453819 0.0344244 0
0.490349 0.0314946 0
0.524346 0.0286412 0
0.556268 0.0259251 0
0.586877 0.0234684 0
0.614694 0.0213779 0
0.641398 0.0197452 0
0.666957 0.0186313 0
0.691356 0.0180362 0
0.714656 0.0179446 0
0.736873 0.0183566 0
0.758175 0.0192264 0
0.77879 0.0204471 0
0.798947 0.021973 0
0.818845 0.0237125 0
0.838682 0.0256352 0
0.858686 0.0276493 0
0.879042 0.0296788 0
0 0.0814221 0.0205386
0 0.0813916 0.0205234
0 0.0814069 0.0205386
0 0.0814221 0.0205539
0 0.0813306 0.0204623
0.0128328 0.0809796 0.0201724
0.0591897 0.0783398 0.0185092
0.111482 0.0743725 0.0158694
0.165927 0.0702068 0.0129397
0.221958 0.066041 0.00987259
0.27686 0.0619059 0.00671397
0.304707 0.0651713 0.00790417
0.334874 0.0673838 0.00843824
0.381186 0.0644694 0.00593576
0.418845 0.061738 0.00357061
0.45568 0.0590982 0.00129702
0.492378 0.0564431 0
0.526513 0.0538796 0
0.558633 0.0514992 0
0.589517 0.0493935 0
0.617426 0.0476539 0
0.644434 0.0463722 0
0.670283 0.0456245 0
0.694972 0.0453956 0
0.718563 0.0456855 0
0.7411 0.0464637 0
0.762692 0.0476997 0
0.783612 0.0493019 0
0.804074 0.0512093 0
0.824277 0.0533455 0
0.844434 0.0556344 0
0.864744 0.0580453 0.000381476
0.88542 0.0604562 0.00247196
0 0.104448 0.0200351
0 0.104479 0.0200656
0 0.104585 0.0201572
0 0.104692 0.0202487
0 0.104723 0.0202792
0.0125429 0.104555 0.0201267
0.0520485 0.104051 0.0196994
0.0956741 0.10277 0.0187076
0.147707 0.0995193 0.0165408
0.204593 0.0953994 0.0137331
0.26154 0.0909895 0.010605
0.307973 0.0893721 0.00889601
0.336675 0.0923629 0.00961318
0.383246 0.0897383 0.00733959
0.420874 0.0873121 0.00526436
0.458061 0.085008 0.00326543
0.494957 0.0827039 0.00128176
0.529244 0.0805066 0
0.561563 0.0784772 0
0.592676 0.0767376 0
0.620722 0.0753643 0
0.648035 0.0744488 0
0.674174 0.0740826 0
0.699184 0.0742351 0
0.723079 0.0748913 0
0.745907 0.076051 0
0.767819 0.0776684 0
0.789059 0.0796674 0
0.809842 0.0819562 0.000640879
0.83035 0.0844892 0.00282292
0.850828 0.0871748 0.00514229
0.871427 0.0899367 0.0075227
0.892378 0.0926986 0.0099031
0 0.12813 0.018967
0 0.128298 0.0191196
0 0.128527 0.0193179
0 0.128801 0.0195621
0 0.129015 0.0197299
0.0118868 0.12903 0.0197604
0.0517281 0.128756 0.0195163
0.0944381 0.128054 0.0189059
0.140276 0.126925 0.0179294
0.191867 0.124666 0.0162356
0.247425 0.121035 0.0137331
0.301381 0.117723 0.0112764
0.339406 0.118547 0.0108034
0.385519 0.116487 0.00894179
0.423148 0.114427 0.00715648
0.460716 0.11249 0.00547799
0.497795 0.110552 0.00381476
0.532235 0.108705 0.00222782
0.564767 0.107057 0.000808728
0.596017 0.105699 0
0.624292 0.104707 0
0.651911 0.104173 0
0.678355 0.104173 0
0.70367 0.104707 0
0.727886 0.10576 0
0.751034 0.107317 0.00102235
0.773266 0.109331 0.00276188
0.794812 0.111696 0.00480659
0.815869 0.114351 0.00709545
0.836652 0.117205 0.00955215
0.857374 0.120195 0.0121309
0.878202 0.123247 0.0147555
0.899367 0.126268 0.0173648
0 0.152834 0.0171664
0 0.153201 0.0174716
0 0.153643 0.0178531
0 0.154131 0.0182803
0 0.154574 0.0186618
0.0103761 0.154849 0.0188907
0.0506142 0.154849 0.0188907
0.0937972 0.154452 0.018555
0.140139 0.153643 0.0178531
0.189883 0.152407 0.0167849
0.240375 0.150729 0.0153506
0.293584 0.148104 0.0134127
0.341131 0.146715 0.0119631
0.387488 0.145006 0.0104067
0.425299 0.143313 0.00894179
0.463249 0.141741 0.00759899
0.500511 0.140185 0.00624094
0.535119 0.13872 0.0049897
0.567895 0.137453 0.00389105
0.599237 0.136477 0.0030518
0.627817 0.135866 0.00251774
0.655726 0.135729 0.00239567
0.682506 0.136126 0.00274662
0.708141 0.137041 0.00354009
0.732647 0.138476 0.00476081
0.756085 0.140368 0.00640879
0.778561 0.142702 0.00842298
0.800351 0.145373 0.0107271
0.821622 0.148302 0.0132448
0.842618 0.1514 0.0159152
0.863508 0.15462 0.0186923
0.884504 0.15787 0.0215
0.905425 0.161059 0.0242618
0 0.178912 0.0144961
0 0.179522 0.0150149
0 0.180224 0.0156252
0 0.181003 0.0162966
0 0.18175 0.0169528
0.00784314 0.182376 0.0174716
0.0486458 0.182712 0.0177768
0.0923781 0.182681 0.0177462
0.139254 0.182239 0.0173648
0.189563 0.181369 0.0166171
0.240421 0.180102 0.0155184
0.291554 0.178592 0.0142061
0.34168 0.176974 0.0128176
0.38883 0.175448 0.0115053
0.427024 0.174136 0.0103761
0.465354 0.172946 0.00935378
0.502831 0.171771 0.00833143
0.537636 0.170703 0.00741588
0.570672 0.169818 0.00665293
0.602106 0.169238 0.00614939
0.631022 0.169009 0.00595102
0.659236 0.169238 0.00614939
0.68629 0.16997 0.00677501
0.712169 0.171206 0.00784314
0.736904 0.172915 0.00932326
0.760555 0.175082 0.0111849
0.78323 0.177661 0.0134127
0.805188 0.180545 0.0158999
0.826627 0.183658 0.0185855
0.847745 0.186938 0.0214084
0.868772 0.190295 0.0243076
0.88986 0.193668 0.0272221
0.910857 0.196963 0.0300603
0 0.206592 0.0110933
0 0.207523 0.0118868
0 0.20856 0.0127871
0 0.209705 0.0137789
0 0.210819 0.0147402
0.00448615 0.21178 0.0155795
0.0458381 0.212497 0.0161898
0.0901198 0.212833 0.0164797
0.13756 0.212757 0.0164187
0.188479 0.212253 0.0159762
0.239918 0.211368 0.0152132
0.2916 0.210239 0.0142367
0.342168 0.209033 0.0131991
0.389654 0.207874 0.0122072
0.428244 0.206958 0.0113985
0.467002 0.206165 0.0107118
0.504707 0.205371 0.0100404
0.539742 0.204685 0.00944533
0.573022 0.204166 0.00898756
0.604501 0.203891 0.00875868
0.633707 0.203967 0.00883497
0.66215 0.204471 0.00926223
0.689403 0.205463 0.0101167
0.71548 0.206928 0.0113832
0.740383 0.20885 0.0130312
0.764187 0.2112 0.0150759
0.786999 0.213931 0.0174258
0.809064 0.216953 0.0200351
0.830594 0.220172 0.0228275
0.851789 0.223545 0.0257267
0.872862 0.226978 0.028687
0.893996 0.230396 0.031632
0.915007 0.233707 0.0345006
0 0.236133 0.0071107
0 0.237415 0.00822461
0 0.238834 0.00943008
0 0.240345 0.0107271
0 0.241825 0.0120089
0.000213626 0.243168 0.0131685
0.0421454 0.244266 0.0141146
0.0870069 0.244984 0.014725
0.135012 0.245289 0.0149844
0.186557 0.245182 0.0148928
0.238651 0.244663 0.0144503
0.290913 0.243931 0.0138247
0.342046 0.243107 0.0131075
0.389944 0.242344 0.0124514
0.428931 0.241779 0.0119783
0.468025 0.241337 0.0115816
0.505974 0.240864 0.0111849
0.541192 0.240467 0.0108339
0.57467 0.240208 0.0106203
0.606195 0.240192 0.010605
0.635615 0.240497 0.0108644
0.664225 0.241199 0.0114748
0.691615 0.242374 0.0124819
0.7178 0.243992 0.0138705
0.742824 0.246052 0.0156405
0.766705 0.248524 0.0177615
0.789578 0.251347 0.0202029
0.811704 0.254444 0.022858
0.833265 0.257725 0.0256809
0.854475 0.261112 0.0285954
0.875532 0.264546 0.0315404
0.896635 0.267933 0.0344549
0.917601 0.271199 0.0372778
0 0.267643 0.00280766
0 0.269291 0.00422675
0 0.271077 0.00576791
0 0.272969 0.00740063
0 0.27483 0.00900282
0 0.276555 0.0104982
0.0379797 0.278035 0.0117647
0.0834363 0.279133 0.0127108
0.132036 0.279835 0.0133211
0.184207 0.280125 0.0135653
0.236957 0.280003 0.0134432
0.289799 0.279622 0.0131228
0.341421 0.279133 0.0127108
0.389776 0.278676 0.012314
0.429068 0.278401 0.0120851
0.468421 0.278218 0.0119173
0.506569 0.277989 0.0117189
0.541939 0.277806 0.0115663
0.57557 0.277745 0.0115053
0.607141 0.277897 0.0116426
0.636698 0.27834 0.0120241
0.6654 0.279164 0.0127413
0.692882 0.28043 0.0138247
0.719127 0.282139 0.0152895
0.744198 0.28423 0.0171054
0.768093 0.286732 0.0192416
0.790967 0.289555 0.0216831
0.813077 0.292622 0.0243229
0.834607 0.295857 0.0271153
0.855756 0.299184 0.0299687
0.876753 0.302525 0.0328374
0.897765 0.305806 0.0356603
0.918608 0.308934 0.0383612
0 0.300801 0
0 0.302831 0.000411994
0 0.305013 0.00228885
0 0.307286 0.00424201
0 0.309545 0.0061799
0 0.311666 0.00801099
0.0341802 0.313542 0.00962844
0.0802167 0.315022 0.0108949
0.129335 0.316075 0.0118105
0.18204 0.316686 0.0123293
0.235325 0.316854 0.0124819
0.288609 0.316762 0.0123903
0.340627 0.316518 0.012192
0.38941 0.316289 0.0119936
0.428901 0.316228 0.0119478
0.468452 0.316228 0.0119326
0.506737 0.316167 0.0118715
0.542214 0.316106 0.011841
0.575936 0.316167 0.0118715
0.607538 0.316396 0.0120851
0.637171 0.316915 0.0125277
0.665919 0.317784 0.0132753
0.693401 0.319081 0.0143893
0.719646 0.320775 0.0158541
0.744686 0.32285 0.0176242
0.768551 0.325307 0.0197299
0.791363 0.328069 0.0221103
0.813397 0.331044 0.0246586
0.834821 0.334173 0.0273442
0.855879 0.337377 0.0300908
0.876799 0.340658 0.0328985
0.897826 0.343969 0.0357214
0.918746 0.347204 0.0384985
0 0.335546 0
0 0.337987 0
0 0.340566 0
0 0.343236 0.00173953
0 0.345876 0.00399786
0 0.348363 0.00613413
0.0313115 0.350561 0.00801099
0.0778058 0.352346 0.00953689
0.127337 0.353689 0.0106661
0.180407 0.354543 0.0113985
0.234104 0.35494 0.0117494
0.287724 0.355047 0.0118257
0.340017 0.354986 0.01178
0.38909 0.35491 0.0117189
0.428687 0.354971 0.01178
0.46836 0.355077 0.0118563
0.506722 0.355093 0.0118715
0.54226 0.355093 0.0118715
0.576013 0.355184 0.0119478
0.607614 0.355444 0.0121614
0.637247 0.355947 0.012604
0.665949 0.356786 0.0133211
0.693385 0.358022 0.014374
0.71957 0.359655 0.0157626
0.744518 0.361639 0.0174563
0.768277 0.363973 0.0194553
0.791012 0.366644 0.0217136
0.813001 0.369604 0.0242313
0.834455 0.372793 0.0269474
0.855589 0.376135 0.0297856
0.8766 0.379553 0.0326848
0.897704 0.382986 0.0355993
0.918685 0.386358 0.0384375
0 0.371847 0
0 0.374685 0
0 0.377615 0
0 0.380636 0.000198367
0 0.383581 0.00270085
0 0.386374 0.00505074
0.0297551 0.388861 0.00712596
0.0765698 0.39089 0.00883497
0.12639 0.392447 0.010132
0.179721 0.393484 0.011017
0.233661 0.394034 0.0114748
0.287449 0.394263 0.0116732
0.339879 0.394293 0.0117037
0.389059 0.394293 0.0117037
0.428717 0.394415 0.0117952
0.468406 0.394537 0.011902
0.506783 0.394568 0.0119173
0.54229 0.394553 0.011902
0.575998 0.394583 0.0119478
0.607553 0.394781 0.0121004
0.63711 0.395209 0.0124514
0.665721 0.395941 0.013077
0.693049 0.397055 0.014023
0.719158 0.398611 0.0153201
0.744106 0.40061 0.0170138
0.76791 0.403052 0.0190585
0.790722 0.405875 0.0214237
0.812802 0.408972 0.024033
0.834333 0.412299 0.0268101
0.855528 0.415747 0.0297093
0.876585 0.419272 0.0326696
0.897719 0.422782 0.0355993
0.918715 0.4262 0.038468
0 0.409598 0
0 0.412726 0
0 0.415961 0
0 0.419242 0
0 0.422431 0.00242618
0 0.425422 0.00494392
0.0298009 0.428077 0.00715648
0.0768139 0.430243 0.0089723
0.126818 0.431922 0.0103761
0.18027 0.433051 0.0113222
0.234287 0.433677 0.0118563
0.288106 0.433936 0.0120699
0.340536 0.433997 0.0121157
0.389548 0.433982 0.0121157
0.429191 0.434073 0.012192
0.468833 0.43415 0.012253
0.507088 0.434089 0.012192
0.542489 0.433967 0.0121004
0.576089 0.43389 0.0120241
0.607538 0.433936 0.0120699
0.637034 0.434302 0.0123751
0.66566 0.43505 0.0130007
0.693065 0.436271 0.014023
0.719265 0.437949 0.0154269
0.744274 0.440055 0.0171969
0.768154 0.442588 0.0193027
0.791028 0.445502 0.0217288
0.813138 0.448692 0.0243839
0.834699 0.452094 0.0272068
0.855909 0.455619 0.0301213
0.876982 0.45919 0.0330816
0.8981 0.46273 0.0360266
0.919097 0.466163 0.03888
0 0.448508 0
0 0.451881 0
0 0.455344 0
0 0.458808 0
0 0.462181 0.0024567
0 0.465293 0.00505074
0.0301366 0.468055 0.00733959
0.0772259 0.470298 0.00921645
0.127275 0.472007 0.0106355
0.180758 0.473152 0.0115969
0.234699 0.473747 0.0121004
0.288472 0.473976 0.0122988
0.34078 0.473976 0.0122835
0.389654 0.473884 0.0122072
0.429191 0.473854 0.012192
0.468696 0.473793 0.0121309
0.506859 0.47361 0.0119936
0.542245 0.473472 0.0118563
0.575891 0.473426 0.0118257
0.607431 0.473594 0.0119631
0.637018 0.474052 0.0123598
0.665705 0.474907 0.0130617
0.693187 0.476188 0.0141451
0.719432 0.477928 0.01561
0.744488 0.480064 0.0174105
0.768383 0.482582 0.0195621
0.791272 0.485451 0.0220035
0.813382 0.488533 0.0246586
0.834943 0.491798 0.0274662
0.856138 0.49514 0.0303807
0.87718 0.498497 0.0332952
0.898268 0.501808 0.0361944
0.919203 0.504997 0.0390021
0 0.488106 0
0 0.491478 0
0 0.494865 0
0 0.498238 0
0 0.501472 0.0024567
0 0.504448 0.00508125
0.0301671 0.507057 0.00735485
0.0772259 0.509148 0.00921645
0.127199 0.510704 0.010605
0.180575 0.511727 0.01149
0.234409 0.512215 0.0119326
0.288014 0.512306 0.0120089
0.340169 0.512169 0.0118868
0.389105 0.512001 0.0117342
0.428626 0.511971 0.0117189
0.468208 0.511986 0.0117342
0.506508 0.511925 0.0116732
0.542 0.511879 0.0116274
0.575723 0.511925 0.0116732
0.60734 0.512154 0.0118715
0.636973 0.512642 0.012314
0.665705 0.513481 0.0130465
0.693202 0.514733 0.0141604
0.719448 0.516381 0.0156405
0.744503 0.518395 0.0174411
0.768399 0.52079 0.0195773
0.791257 0.523476 0.0219883
0.813352 0.52639 0.0246128
0.834867 0.529442 0.0273747
0.856001 0.532586 0.0302281
0.876982 0.535729 0.0330816
0.897993 0.538811 0.0359045
0.918837 0.541756 0.0386053
0 0.525994 0
0 0.529244 0
0 0.532494 0
0 0.535729 0
0 0.538796 0.00247196
0 0.541604 0.00503548
0.029984 0.544015 0.00726329
0.0768902 0.545937 0.00901808
0.12668 0.547311 0.0102998
0.179858 0.548165 0.0110933
0.233631 0.548577 0.0114748
0.287297 0.548699 0.0115816
0.339635 0.548653 0.0115358
0.3888 0.548592 0.0114748
0.428412 0.548653 0.0115358
0.468071 0.548745 0.0116121
0.506447 0.548745 0.0116121
0.542 0.548745 0.0116274
0.575753 0.548821 0.0116884
0.607385 0.549065 0.0119173
0.637018 0.549538 0.0123598
0.665751 0.550347 0.0131075
0.693217 0.551537 0.0141909
0.719463 0.553094 0.0156405
0.744472 0.554986 0.0174105
0.768322 0.557229 0.0194858
0.791119 0.559747 0.0218509
0.813138 0.562478 0.0243839
0.834562 0.565332 0.0270695
0.855619 0.568261 0.0298161
0.876493 0.571176 0.0325628
0.897383 0.574029 0.0352483
0.918105 0.576745 0.0378271
0 0.562249 0
0 0.565347 0
0 0.568429 0
0 0.571466 0
0 0.574334 0.002533
0 0.576913 0.0049897
0.0297246 0.579171 0.0071107
0.076585 0.580987 0.00885023
0.126452 0.582391 0.0101778
0.179797 0.583307 0.0110628
0.233738 0.583795 0.0115206
0.287526 0.583993 0.0117037
0.33994 0.584024 0.0117342
0.38909 0.584009 0.0117342
0.428748 0.584115 0.0118257
0.468452 0.584237 0.0119326
0.506813 0.584253 0.0119478
0.542336 0.584253 0.0119631
0.576074 0.584314 0.0120241
0.607675 0.584543 0.0122225
0.637278 0.58497 0.0126345
0.665965 0.585702 0.0133364
0.693385 0.586786 0.014374
0.719554 0.588235 0.0157473
0.744503 0.58999 0.0174411
0.768261 0.592035 0.0194247
0.790967 0.594293 0.0216831
0.812879 0.596689 0.0241093
0.834195 0.599161 0.0266575
0.855116 0.601633 0.0292668
0.875837 0.604074 0.0318608
0.896574 0.606424 0.0343938
0.917144 0.608652 0.0367895
0 0.596658 0
0 0.599359 0
0 0.602014 0
0 0.604623 0.000213626
0 0.607141 0.00291447
0 0.609476 0.00543221
0.0307012 0.611536 0.00766003
0.0777142 0.61323 0.00949111
0.127703 0.614527 0.0108797
0.181155 0.615427 0.0118257
0.235096 0.615915 0.0123445
0.288899 0.616114 0.0125582
0.341283 0.616159 0.012604
0.390127 0.616159 0.0126192
0.429816 0.616251 0.0127108
0.46949 0.616342 0.0128023
0.507744 0.616342 0.0128023
0.543191 0.616312 0.0127718
0.576852 0.616327 0.0127871
0.608316 0.616464 0.0129244
0.637873 0.616785 0.0132753
0.666484 0.617365 0.0138857
0.693812 0.618265 0.0148318
0.71989 0.619486 0.0160983
0.744717 0.620981 0.0176699
0.768353 0.622751 0.0195315
0.790921 0.624765 0.0216373
0.81268 0.626947 0.0239109
0.833844 0.629221 0.0262913
0.854597 0.63154 0.0287175
0.875135 0.633844 0.0311284
0.895689 0.636072 0.0334478
0.91606 0.638148 0.0356298
0 0.627161 0
0 0.629862 0
0 0.632609 0
0 0.635355 0.00161746
0 0.638025 0.0043946
0 0.640497 0.00698863
0.0335546 0.64268 0.00927749
0.0806439 0.644465 0.0111391
0.130694 0.645823 0.0125582
0.184161 0.646738 0.0135195
0.237964 0.647242 0.0140536
0.29163 0.647456 0.0142672
0.343847 0.647486 0.0142977
0.39202 0.647456 0.0142672
0.431754 0.647517 0.0143282
0.471366 0.647562 0.014374
0.509392 0.647486 0.0142977
0.544656 0.647395 0.0141909
0.578195 0.647318 0.0141299
0.609445 0.647364 0.0141604
0.638926 0.647578 0.0143893
0.667414 0.648051 0.0148928
0.694621 0.648814 0.0157015
0.720562 0.649882 0.0168154
0.745235 0.65124 0.0182193
0.768704 0.652842 0.019913
0.791119 0.654688 0.0218357
0.81268 0.656672 0.0239109
0.833646 0.658747 0.0260929
0.8542 0.660868 0.0282902
0.874525 0.662943 0.0304723
0.89485 0.664927 0.0325475
0.914961 0.666758 0.0344549
0 0.657847 0
0 0.660624 0
0 0.663417 0.00138857
0 0.666224 0.00433356
0 0.668925 0.00715648
0 0.671427 0.00976577
0.0385138 0.673625 0.0120699
0.0856031 0.67541 0.0139315
0.135653 0.676753 0.0153506
0.189014 0.677653 0.0162966
0.242527 0.678126 0.0167849
0.295949 0.678294 0.0169528
0.34786 0.678264 0.0169223
0.395041 0.678172 0.0168307
0.43473 0.678157 0.0168154
0.474205 0.678111 0.0167697
0.511879 0.677943 0.0165866
0.546883 0.677729 0.0163577
0.580255 0.677531 0.0161593
0.611185 0.67744 0.0160678
0.640558 0.677516 0.016144
0.668894 0.677836 0.0164645
0.695949 0.678431 0.0171054
0.721691 0.679316 0.0180362
0.746197 0.680476 0.0192416
0.769467 0.68188 0.0207218
0.791653 0.683513 0.0224155
0.813001 0.685267 0.0242466
0.833738 0.687114 0.0261692
0.854032 0.688975 0.0281224
0.874113 0.690791 0.0300298
0.894194 0.692531 0.0318456
0.914076 0.694118 0.0335088
0 0.688258 0
0 0.691066 0.00244144
0 0.693889 0.00540169
0 0.696696 0.00834669
0 0.699397 0.0111696
0.0012665 0.701885 0.0137636
0.0455634 0.704051 0.0160372
0.0925917 0.705806 0.0178683
0.142611 0.707118 0.0192416
0.195666 0.707958 0.0201114
0.248783 0.708354 0.0205386
0.301823 0.708446 0.0206149
0.353262 0.708324 0.0204929
0.399222 0.708125 0.0202945
0.438743 0.707988 0.0201572
0.477989 0.70782 0.0199741
0.51519 0.707515 0.0196536
0.549859 0.707149 0.0192721
0.583001 0.706798 0.0189059
0.613535 0.706538 0.0186313
0.642771 0.706416 0.0185092
0.670924 0.706538 0.0186313
0.697765 0.706935 0.0190433
0.723293 0.707607 0.0197452
0.74757 0.708522 0.0207065
0.770596 0.709682 0.0219272
0.792538 0.711055 0.0233616
0.813657 0.712566 0.0249332
0.834134 0.714153 0.0266117
0.8542 0.71577 0.0282902
0.874037 0.717357 0.0299382
0.893874 0.718853 0.0315099
0.913527 0.720195 0.0329137
0 0.718273 0.00469978
0 0.72108 0.00764477
0 0.723888 0.0105745
0 0.72668 0.013489
0 0.729335 0.0162661
0.0102388 0.731777 0.0188144
0.0544137 0.733883 0.0210269
0.101305 0.735561 0.0227817
0.151263 0.736782 0.0240635
0.203769 0.73753 0.0248417
0.256428 0.737819 0.0251469
0.308934 0.737774 0.0251011
0.359777 0.73753 0.0248417
0.404288 0.737194 0.0244907
0.443565 0.736904 0.0241855
0.482521 0.736568 0.0238346
0.519142 0.73608 0.023331
0.553414 0.735531 0.0227512
0.586297 0.734981 0.0221714
0.616358 0.734508 0.0216678
0.645411 0.734157 0.0213169
0.67332 0.734035 0.0211948
0.699916 0.734188 0.0213474
0.725216 0.734615 0.0217899
0.749233 0.735271 0.0224918
0.77203 0.736202 0.0234531
0.793729 0.737316 0.0246281
0.814603 0.738582 0.0259556
0.834836 0.73994 0.0273594
0.854658 0.741299 0.0287938
0.874266 0.742641 0.0301976
0.893874 0.743893 0.0315099
0.913283 0.745007 0.0326696
0 0.747799 0.0109865
0 0.750561 0.0138857
0 0.753323 0.0167544
0 0.756039 0.0196078
0 0.758618 0.0223087
0.0207828 0.760967 0.0247654
0.0647593 0.762966 0.0268559
0.111452 0.764538 0.0284886
0.161288 0.765637 0.0296483
0.213031 0.766247 0.0302892
0.265156 0.766384 0.0304265
0.317021 0.766186 0.0302281
0.367147 0.765774 0.0298009
0.41001 0.765255 0.0292515
0.449027 0.764767 0.028748
0.487556 0.764233 0.0281834
0.523537 0.763531 0.027451
0.557366 0.762753 0.026627
0.589929 0.761959 0.025803
0.619501 0.761227 0.0250401
0.64831 0.760647 0.0244144
0.675975 0.760266 0.024033
0.702327 0.760174 0.0239261
0.727382 0.760342 0.0241093
0.751171 0.760769 0.0245518
0.773724 0.76144 0.0252689
0.795193 0.762325 0.0261845
0.815824 0.763348 0.0272679
0.835828 0.764462 0.0284276
0.855421 0.765606 0.0296178
0.8748 0.766705 0.0307622
0.894179 0.767727 0.0318303
0.913359 0.768597 0.0327459
0 0.776715 0.0181888
0 0.779385 0.0209964
0 0.782055 0.0237736
0 0.784665 0.0265049
0 0.787121 0.0290837
0.0325628 0.789349 0.0314031
0.0762951 0.791211 0.0333562
0.122698 0.79263 0.0348363
0.172335 0.793561 0.0358129
0.223194 0.794003 0.0362707
0.274662 0.793957 0.0362249
0.325765 0.793561 0.0358282
0.375051 0.792935 0.035172
0.416205 0.792203 0.0343938
0.454917 0.791485 0.0336461
0.492851 0.790692 0.0328222
0.528176 0.789746 0.0318303
0.561532 0.788708 0.0307469
0.593713 0.787671 0.0296483
0.622873 0.786694 0.0286259
0.651438 0.785855 0.0277562
0.678874 0.785245 0.0271153
0.704982 0.784909 0.0267643
0.729793 0.784833 0.026688
0.753353 0.785031 0.0268864
0.775677 0.785458 0.0273442
0.796918 0.786114 0.0280308
0.817319 0.786908 0.0288548
0.837095 0.787778 0.0297704
0.856458 0.788693 0.0307164
0.875608 0.789563 0.031632
0.894774 0.790356 0.0324559
0.913725 0.790997 0.0331426
0 0.804944 0.0259861
0 0.807507 0.0286564
0 0.810025 0.0312963
0 0.812497 0.033875
0.00366217 0.814817 0.0363012
0.0450446 0.816861 0.0384375
0.0884565 0.818555 0.0402075
0.134524 0.819776 0.0414893
0.183749 0.820508 0.0422675
0.233661 0.820737 0.0424964
0.284382 0.820462 0.0422065
0.334646 0.819837 0.0415503
0.383001 0.818967 0.0406348
0.422461 0.817975 0.0395972
0.460868 0.816999 0.0385901
0.498116 0.815961 0.0375067
0.53283 0.814771 0.0362554
0.565759 0.813489 0.0349126
0.597436 0.812207 0.0335699
0.626307 0.810987 0.0323033
0.654627 0.809918 0.0311742
0.681834 0.809064 0.0302892
0.707713 0.808484 0.0296788
0.732311 0.808179 0.0293736
0.755627 0.808133 0.0293126
0.777722 0.808347 0.0295415
0.798733 0.808759 0.0299687
0.818906 0.809323 0.0305638
0.838468 0.809979 0.0312352
0.857618 0.810651 0.0319524
0.876554 0.811307 0.0326238
0.895491 0.811872 0.0332341
0.91426 0.812329 0.0336919
0 0.832471 0.0339818
0 0.834867 0.0364996
0 0.837217 0.0389563
0 0.839506 0.0413519
0.0165408 0.841627 0.0435645
0.0575723 0.843473 0.0455024
0.100557 0.844938 0.0470436
0.146304 0.84593 0.0480812
0.194812 0.846418 0.0485847
