assets/Cobi_3.CUBE
TITLE "Generated by Resolve"
LUT_3D_SIZE 5
0 0.0131075 0.0207675
0.13875 0.00929274 0.0170748
0.488548 0 0
0.709712 0 0
0.869383 0 0
0 0.206592 0.0110933
0.13756 0.212757 0.0164187
0.504707 0.205371 0.0100404
0.740383 0.20885 0.0130312
0.915007 0.233707 0.0345006
0 0.488106 0
0.127199 0.510704 0.010605
0.506508 0.511925 0.0116732
0.744503 0.518395 0.0174411
0.918837 0.541756 0.0386053
0 0.747799 0.0109865
0.161288 0.765637 0.0296483
0.523537 0.763531 0.027451
0.751171 0.760769 0.0245518
0.913359 0.768597 0.0327459
0 0.957473 0.0661021
0.233112 0.961883 0.0707408
0.550851 0.945235 0.0536812
0.763195 0.929671 0.0373999
0.916075 0.927993 0.0356451
0 0.0124819 0.183703
0.137789 0.00868238 0.179995
0.488472 0 0.159014
0.710842 0 0.1449
0.872374 0 0.151965
0 0.208804 0.176455
0.144656 0.21735 0.183841
0.576593 0.200748 0.102846
0.747204 0.217288 0.18378
0.921981 0.242374 0.205432
0 0.496727 0.161746
0.140139 0.518868 0.181323
0.514595 0.520241 0.182559
0.751492 0.526711 0.188373
0.925277 0.549233 0.208972
0 0.754803 0.181765
0.172946 0.771862 0.199634
0.528923 0.768399 0.196017
0.754376 0.76405 0.191455
0.915114 0.770382 0.198077
0 0.960189 0.232746
0.235325 0.963149 0.235813
0.55108 0.945449 0.217411
0.762829 0.929305 0.200488
0.915572 0.927489 0.198581
0 0.00553903 0.439384
0.126299 0.00120546 0.434913
0.481849 0 0.410864
0.706981 0 0.396033
0.87042 0 0.406821
0 0.204852 0.434318
0.142321 0.215839 0.445563
0.511986 0.213077 0.442756
0.748577 0.218982 0.448737
0.923186 0.243885 0.474083
0 0.498466 0.42269
0.142107 0.520104 0.445426
0.516213 0.52192 0.447349
0.797864 0.522606 0.376394
0.925795 0.549844 0.477516
0 0.755871 0.445991
0.173144 0.771969 0.465705
0.527367 0.766979 0.459556
0.751476 0.76109 0.452354
0.910765 0.765942 0.458274
0 0.956695 0.502892
0.226734 0.958267 0.505058
0.5449 0.939696 0.47982
0.756756 0.923125 0.458946
0.909529 0.921324 0.456733
0 0 0.783856
0.114336 0 0.778546
0.475105 0 0.74966
0.703319 0 0.733547
0.868742 0 0.750423
0 0.201205 0.7832
0.140536 0.214679 0.800702
0.512596 0.213733 0.799451
0.749569 0.220218 0.807889
0.923781 0.244633 0.839536
0 0.499611 0.774762
0.143603 0.521019 0.803281
0.517372 0.52311 0.806104
0.753399 0.528954 0.814023
0.925505 0.549508 0.842298
0 0.756268 0.803357
0.171679 0.771191 0.826841
0.524742 0.764614 0.816495
0.747662 0.757183 0.804807
0.905608 0.760662 0.810285
0 0.952255 0.865324
0.216724 0.952621 0.865888
0.537987 0.933303 0.835477
0.750225 0.916457 0.808942
0.903181 0.914824 0.806378
0 0 1
0.112856 0 1
0.475639 0 1
0.705608 0 1
0.873045 0 1
0 0.204929 1
0.150027 0.220813 1
0.5196 0.221256 1
0.75581 0.227939 1
0.929839 0.252155 1
0 0.506966 1
0.155505 0.528389 1
0.524483 0.530495 1
0.759075 0.535637 1
0.930053 0.554757 1
0 0.761715 1
0.179263 0.775265 1
0.527504 0.767117 1
0.748638 0.75819 1
0.905364 0.760418 1
0 0.952728 1
0.215732 0.952056 1
0.536751 0.932174 1
0.748989 0.91519 1
0.902449 0.913695 1
