assets/Cobi_3.CUBE
TITLE "Generated by Resolve"
LUT_3D_SIZE 9
0 0.0131075 0.0207675
0 0.0129702 0.0206607
0.13875 0.00929274 0.0170748
0.332647 0 0.00700389
0.488548 0 0
0.611795 0 0
0.709712 0 0
0.791699 0 0
0.869383 0 0
0 0.104448 0.0200351
0 0.104723 0.0202792
0.147707 0.0995193 0.0165408
0.336675 0.0923629 0.00961318
0.494957 0.0827039 0.00128176
0.620722 0.0753643 0
0.723079 0.0748913 0
0.809842 0.0819562 0.000640879
0.892378 0.0926986 0.0099031
0 0.206592 0.0110933
0 0.210819 0.0147402
0.13756 0.212757 0.0164187
0.342168 0.209033 0.0131991
0.504707 0.205371 0.0100404
0.633707 0.203967 0.00883497
0.740383 0.20885 0.0130312
0.830594 0.220172 0.0228275
0.915007 0.233707 0.0345006
0 0.335546 0
0 0.345876 0.00399786
0.127337 0.353689 0.0106661
0.340017 0.354986 0.01178
0.506722 0.355093 0.0118715
0.637247 0.355947 0.012604
0.744518 0.361639 0.0174563
0.834455 0.372793 0.0269474
0.918685 0.386358 0.0384375
0 0.488106 0
0 0.501472 0.0024567
0.127199 0.510704 0.010605
0.340169 0.512169 0.0118868
0.506508 0.511925 0.0116732
0.636973 0.512642 0.012314
0.744503 0.518395 0.0174411
0.834867 0.529442 0.0273747
0.918837 0.541756 0.0386053
0 0.627161 0
0 0.638025 0.0043946
0.130694 0.645823 0.0125582
0.343847 0.647486 0.0142977
0.509392 0.647486 0.0142977
0.638926 0.647578 0.0143893
0.745235 0.65124 0.0182193
0.833646 0.658747 0.0260929
0.914961 0.666758 0.0344549
0 0.747799 0.0109865
0 0.758618 0.0223087
0.161288 0.765637 0.0296483
0.367147 0.765774 0.0298009
0.523537 0.763531 0.027451
0.64831 0.760647 0.0244144
0.751171 0.760769 0.0245518
0.835828 0.764462 0.0284276
0.913359 0.768597 0.0327459
0 0.859205 0.041886
0.0289616 0.867506 0.0505531
0.20502 0.871305 0.0541238
0.395727 0.867781 0.0508583
0.54136 0.861677 0.0444495
0.660471 0.854948 0.0374151
0.759686 0.851347 0.0336461
0.840925 0.851545 0.0338598
0.915419 0.852583 0.0349584
0 0.957473 0.0661021
0.0654459 0.961883 0.0707256
0.233112 0.961883 0.0707408
0.411093 0.954696 0.0632029
0.550851 0.945235 0.0536812
0.666255 0.935607 0.0436103
0.763195 0.929671 0.0373999
0.842725 0.928145 0.0357824
0.916075 0.927993 0.0356451
0 0.0129397 0.0986954
0 0.0130159 0.0987564
0.139254 0.00917067 0.0945296
0.332692 0 0.0850843
0.488746 0 0.0738689
0.612192 0 0.0638132
0.710445 0 0.0590677
0.792874 0 0.0605478
0.871031 0 0.0651255
0 0.104524 0.0981613
0 0.105028 0.0986038
0.199084 0.0902876 0.0445411
0.404257 0.0796521 0.0305791
0.496574 0.0843671 0.080766
0.622553 0.0776226 0.0749523
0.725399 0.07776 0.0750744
0.812665 0.0854658 0.0817121
0.895628 0.0967269 0.0914321
0 0.207889 0.0902724
0 0.21268 0.0944228
0.141375 0.215244 0.0966201
0.354986 0.210254 0.0867475
0.508232 0.209079 0.09131
0.637079 0.208133 0.090486
0.743999 0.213321 0.0949569
0.834333 0.224796 0.104891
0.91873 0.238346 0.116579
0 0.338903 0.0760815
0 0.349813 0.08542
0.133928 0.358022 0.0924392
0.345983 0.359579 0.0937667
0.511101 0.359792 0.0939345
0.64094 0.360586 0.0946212
0.748074 0.366079 0.099321
0.838102 0.377386 0.108919
0.922408 0.391104 0.120516
0 0.492699 0.0728466
0 0.506035 0.0845197
0.134157 0.515114 0.0925765
0.345968 0.516442 0.0937514
0.510826 0.51635 0.0936751
0.640711 0.517128 0.094377
0.748241 0.52285 0.0994888
0.838514 0.533745 0.109361
0.922316 0.545815 0.120409
0 0.630854 0.0749371
0 0.641825 0.0864271
0.137835 0.649653 0.0946365
0.349874 0.65127 0.0963149
0.513573 0.651164 0.0962081
0.642329 0.651057 0.0961013
0.748394 0.654459 0.0996567
0.836469 0.661646 0.107179
0.917388 0.669245 0.115145
0 0.751553 0.0929885
0 0.762234 0.104158
0.167651 0.769039 0.111284
0.371939 0.768887 0.111116
0.526589 0.766278 0.108385
0.650584 0.762982 0.104936
0.753079 0.762707 0.104662
0.837369 0.766033 0.108125
0.914534 0.769787 0.112078
0 0.862196 0.123095
0.0337682 0.870085 0.131365
0.208927 0.873503 0.134936
0.398001 0.869596 0.130831
0.542901 0.863096 0.124041
0.661509 0.856001 0.116609
0.760388 0.852064 0.11249
0.841367 0.852003 0.112428
0.915679 0.852842 0.113298
0 0.959136 0.146365
0.0678416 0.963165 0.150591
0.234745 0.962814 0.15021
0.411872 0.955322 0.142367
0.551247 0.945617 0.132189
0.666453 0.93579 0.121889
0.763256 0.929747 0.115557
0.842725 0.92813 0.113863
0.91606 0.927977 0.11371
0 0.0124819 0.183703
0 0.0124361 0.183658
0.137789 0.00868238 0.179995
0.332036 0 0.170047
0.488472 0 0.159014
0.612222 0 0.149248
0.710842 0 0.1449
0.793729 0 0.146868
0.872374 0 0.151965
0 0.104097 0.183185
0 0.104845 0.183841
0.141131 0.102571 0.181872
0.342672 0.0935073 0.170352
0.49781 0.0856641 0.167285
0.624079 0.0795148 0.161975
0.727428 0.0802777 0.162631
0.815183 0.0885939 0.169802
0.898528 0.100313 0.179919
0 0.208804 0.176455
0 0.214191 0.181109
0.144656 0.21735 0.183841
0.41973 0.201968 0.103731
0.576593 0.200748 0.102846
0.64007 0.211841 0.17908
0.747204 0.217288 0.18378
0.837613 0.22887 0.19379
0.921981 0.242374 0.205432
0 0.341909 0.164034
0 0.353323 0.173816
0.139803 0.361898 0.181125
0.351247 0.363653 0.18262
0.523354 0.362387 0.173083
0.644144 0.364599 0.183444
0.751156 0.36997 0.188006
0.841321 0.381445 0.197757
0.925689 0.395285 0.209415
0 0.496727 0.161746
0 0.509987 0.173404
0.140139 0.518868 0.181323
0.35108 0.520195 0.182513
0.514595 0.520241 0.182559
0.644007 0.521065 0.183276
0.751492 0.526711 0.188373
0.841642 0.537423 0.198108
0.925277 0.549233 0.208972
0 0.634119 0.163745
0 0.645167 0.175326
0.144121 0.65301 0.183536
0.355062 0.654551 0.185153
0.517128 0.654307 0.184894
0.645197 0.653986 0.184573
0.750973 0.657099 0.187823
0.838697 0.66392 0.194949
0.919219 0.671107 0.202487
0 0.754803 0.181765
0 0.765301 0.192767
0.172946 0.771862 0.199634
0.375799 0.771405 0.199145
0.528923 0.768399 0.196017
0.652277 0.764706 0.192142
0.754376 0.76405 0.191455
0.8383 0.766979 0.194522
0.915114 0.770382 0.198077
0 0.864576 0.210986
0.0374456 0.872068 0.21883
0.211749 0.87509 0.221973
0.399527 0.870787 0.217487
0.543786 0.86392 0.2103
0.661952 0.856458 0.202487
0.76054 0.852216 0.198032
0.841291 0.851911 0.197711
0.915404 0.852567 0.198398
0 0.960189 0.232746
0.0691234 0.963851 0.236545
0.235325 0.963149 0.235813
0.411948 0.955383 0.227756
0.55108 0.945449 0.217411
0.666133 0.93547 0.206943
0.762829 0.929305 0.200488
0.842252 0.927642 0.198749
0.915572 0.927489 0.198581
0 0.00959792 0.296544
0 0.00959792 0.296407
0.133165 0.00567636 0.292699
0.328222 0 0.282643
0.485878 0 0.27158
0.610452 0 0.261845
0.709438 0 0.257816
0.792798 0 0.260365
0.871931 0 0.266148
0 0.101305 0.296147
0 0.102358 0.297078
0.137926 0.100481 0.295415
0.337041 0.0926223 0.288487
0.49691 0.0847181 0.281514
0.623804 0.0791791 0.276616
0.727672 0.0805829 0.277852
0.815885 0.0894636 0.285695
0.89955 0.101579 0.296391
0 0.207492 0.290547
0 0.213474 0.295842
0.144488 0.217243 0.299184
0.35053 0.215396 0.297551
0.515816 0.212833 0.291279
0.641199 0.21323 0.295628
0.748486 0.218875 0.300618
0.838941 0.230503 0.310948
0.923217 0.243915 0.322896
0 0.342641 0.279667
0 0.354513 0.290059
0.142092 0.363394 0.29781
0.353368 0.365286 0.299474
0.582834 0.354314 0.215244
0.702968 0.357229 0.218097
0.752346 0.37145 0.304845
0.842618 0.383078 0.315007
0.927016 0.396979 0.327138
0 0.498344 0.278126
0 0.511528 0.289998
0.142275 0.520195 0.297917
0.353063 0.52166 0.29926
0.516106 0.521813 0.299397
0.652659 0.521523 0.28957
0.752743 0.528191 0.305287
0.842771 0.538735 0.31516
0.926192 0.550301 0.326207
0 0.635401 0.28011
0 0.646525 0.292012
0.146609 0.654337 0.300389
0.357015 0.655802 0.301961
0.518334 0.65539 0.301518
0.646021 0.654826 0.300923
0.751492 0.657633 0.303914
0.838834 0.664042 0.310826
0.918959 0.670848 0.318181
0 0.755993 0.298436
0 0.766308 0.309514
0.174304 0.772595 0.316304
0.376394 0.771786 0.315435
0.528923 0.768383 0.311757
0.651881 0.764294 0.307347
0.753613 0.763256 0.306233
0.837156 0.76582 0.308995
0.913603 0.768841 0.312261
0 0.86482 0.32755
0.0371405 0.871916 0.335348
0.210773 0.87454 0.338231
0.398337 0.869856 0.333074
0.542382 0.862623 0.325154
0.660334 0.854795 0.316655
0.758633 0.850278 0.311772
0.83917 0.849744 0.311208
0.91313 0.850233 0.311727
0 0.959136 0.349233
0.066453 0.962432 0.352956
0.232212 0.961379 0.351766
0.4094 0.953353 0.342779
0.548699 0.943221 0.331563
0.663798 0.933089 0.3205
0.760418 0.926848 0.313726
0.839796 0.925155 0.311894
0.913161 0.925017 0.311757
0 0.00553903 0.439384
0 0.00534066 0.43917
0.126299 0.00120546 0.434913
0.322438 0 0.423392
0.481849 0 0.410864
0.607614 0 0.400092
0.706981 0 0.396033
0.790814 0 0.399558
0.87042 0 0.406821
0 0.0970932 0.439216
0 0.0984817 0.440635
0.132662 0.0970626 0.439185
0.333257 0.0897841 0.431693
0.494728 0.082475 0.424186
0.622492 0.0775616 0.41915
0.726864 0.0795758 0.421225
0.815488 0.0889754 0.430854
0.899443 0.101457 0.443656
0 0.204852 0.434318
0 0.211444 0.441093
0.142321 0.215839 0.445563
0.349493 0.214603 0.444312
0.511986 0.213077 0.442756
0.641169 0.213184 0.442878
0.748577 0.218982 0.448737
0.839017 0.230625 0.460456
0.923186 0.243885 0.474083
0 0.342016 0.423728
0 0.354299 0.436225
0.142138 0.363424 0.445441
0.353521 0.365423 0.44744
0.516487 0.365621 0.447623
0.648295 0.365469 0.443687
0.752346 0.371466 0.453437
0.84271 0.3832 0.465095
0.927123 0.397101 0.479286
0 0.498466 0.42269
0 0.511543 0.436393
0.142107 0.520104 0.445426
0.35314 0.521721 0.447135
0.516213 0.52192 0.447349
0.702464 0.513924 0.367437
0.797864 0.522606 0.376394
0.842603 0.538537 0.464958
0.925795 0.549844 0.477516
0 0.635477 0.424964
0 0.646632 0.438865
0.146731 0.654398 0.448432
0.356924 0.655741 0.45008
0.518059 0.655146 0.449332
0.645518 0.654322 0.448341
0.756298 0.656123 0.44123
0.837598 0.662791 0.458686
0.917357 0.6692 0.466575
0 0.755871 0.445991
0 0.765972 0.45832
0.173144 0.771969 0.465705
0.374868 0.770794 0.46424
0.527367 0.766979 0.459556
0.650126 0.762509 0.454078
0.751476 0.76109 0.452354
0.834669 0.763272 0.455024
0.910765 0.765942 0.458274
0 0.863676 0.478172
0.034287 0.870375 0.487083
0.20734 0.872602 0.49012
0.395438 0.867552 0.483268
0.539498 0.859937 0.47335
0.657389 0.851789 0.463157
0.755428 0.846998 0.457282
0.835767 0.846281 0.456382
0.90959 0.846616 0.456794
0 0.956695 0.502892
0.0612497 0.959625 0.506905
0.226734 0.958267 0.505058
0.405173 0.949996 0.493751
0.5449 0.939696 0.47982
0.660212 0.929442 0.466743
0.756756 0.923125 0.458946
0.836133 0.921401 0.45684
0.909529 0.921324 0.456733
0 0.000976577 0.608011
0 0.000762951 0.607736
0.119448 0 0.602731
0.31667 0 0.589242
0.477882 0 0.574899
0.604868 0 0.562921
0.704631 0 0.558907
0.788952 0 0.563668
0.869062 0 0.572854
0 0.0929427 0.608316
0 0.0946975 0.610498
0.127642 0.0937972 0.609384
0.329671 0.0870985 0.601068
0.492699 0.0803845 0.592844
0.621317 0.0760967 0.58761
0.726177 0.0787213 0.590814
0.815167 0.0885786 0.602899
0.899367 0.101366 0.618921
0 0.202396 0.604501
0 0.209583 0.613489
0.140429 0.214618 0.619883
0.348623 0.213931 0.619013
0.511742 0.212818 0.617578
0.641154 0.213169 0.618036
0.748638 0.219059 0.625605
0.839048 0.230655 0.640742
0.923049 0.243702 0.657801
0 0.341512 0.594232
0 0.354131 0.609689
0.142199 0.363455 0.621347
0.353628 0.365499 0.623941
0.516457 0.365591 0.624063
0.645106 0.365789 0.624323
0.752346 0.371466 0.631586
0.842771 0.383276 0.646799
0.927169 0.397162 0.664424
0 0.498527 0.593683
0 0.511437 0.609964
0.141985 0.520012 0.621164
0.353185 0.521767 0.623514
0.516289 0.522011 0.623835
0.645441 0.522774 0.624857
0.755016 0.527749 0.628473
0.842329 0.538231 0.646082
0.925261 0.549233 0.661372
0 0.635538 0.596414
0 0.646693 0.613184
0.146715 0.654398 0.625116
0.356695 0.655604 0.627008
0.517647 0.65478 0.625711
0.644892 0.653666 0.623972
0.792813 0.649882 0.558358
0.860945 0.659678 0.580102
0.915587 0.667384 0.645716
0 0.755657 0.621653
0 0.765515 0.637201
0.17171 0.771206 0.646235
0.373083 0.769635 0.643748
0.525643 0.765423 0.637049
0.648219 0.760555 0.629328
0.749203 0.758755 0.626505
0.832074 0.760571 0.629252
0.907805 0.762905 0.633051
0 0.862364 0.660929
0.0311131 0.868666 0.670832
0.203601 0.870512 0.673747
0.392355 0.86508 0.665202
0.536416 0.857114 0.652644
0.654307 0.848646 0.639185
0.752117 0.843626 0.63122
0.832273 0.84271 0.62977
0.905974 0.842924 0.630106
0 0.954086 0.687663
0.0557565 0.956664 0.691722
0.221012 0.955032 0.689158
0.400824 0.946548 0.675792
0.540993 0.93608 0.659297
0.656565 0.925719 0.642878
0.753063 0.919341 0.632731
0.832441 0.917632 0.63003
0.905898 0.917617 0.629984
0 0 0.783856
0 0 0.783612
0.114336 0 0.778546
0.31249 0 0.764614
0.475105 0 0.74966
0.603128 0 0.737209
0.703319 0 0.733547
0.788128 0 0.73959
0.868742 0 0.750423
0 0.0899825 0.784878
0 0.092134 0.787686
0.12459 0.0917983 0.787228
0.327794 0.0856947 0.779309
0.49192 0.0795911 0.771405
0.62118 0.0759289 0.766659
0.726497 0.0791333 0.770809
0.815824 0.0893873 0.7841
0.900221 0.102419 0.801007
0 0.201205 0.7832
0 0.209018 0.793347
0.140536 0.214679 0.800702
0.349355 0.214496 0.800458
0.512596 0.213733 0.799451
0.642054 0.214298 0.800183
0.749569 0.220218 0.807889
0.839902 0.231708 0.822797
0.923781 0.244633 0.839536
0 0.342229 0.774823
0 0.355138 0.79144
0.143984 0.36463 0.803586
0.355123 0.366659 0.806195
0.517372 0.366583 0.806104
0.645899 0.366796 0.806378
0.753262 0.37261 0.813809
0.843717 0.384466 0.828916
0.928069 0.398306 0.846418
0 0.499611 0.774762
0 0.512306 0.791577
0.143603 0.521019 0.803281
0.354681 0.522866 0.805768
0.517372 0.52311 0.806104
0.646311 0.523796 0.807034
0.753399 0.528954 0.814023
0.842863 0.538842 0.827543
0.925505 0.549508 0.842298
0 0.6365 0.777737
0 0.647623 0.795239
0.148302 0.655253 0.807233
0.357763 0.656275 0.80885
0.518135 0.655222 0.807187
0.645014 0.653788 0.804944
0.749401 0.655482 0.807599
0.837018 0.660533 0.813245
0.914549 0.666331 0.824674
0 0.756268 0.803357
0 0.76585 0.818433
0.171679 0.771191 0.826841
0.372457 0.769223 0.823728
0.524742 0.764614 0.816495
0.647044 0.759365 0.808225
0.747662 0.757183 0.804807
0.830137 0.758633 0.807095
0.905608 0.760662 0.810285
0 0.861799 0.840589
0.0293584 0.86772 0.849882
0.201221 0.869184 0.852201
0.390326 0.863386 0.843061
0.534157 0.855055 0.829953
0.652018 0.846311 0.816205
0.749615 0.841062 0.80795
0.829618 0.839979 0.806256
0.903197 0.840085 0.806424
0 0.952255 0.865324
0.0517281 0.954498 0.868864
0.216724 0.952621 0.865888
0.397498 0.943923 0.852216
0.537987 0.933303 0.835477
0.653773 0.922866 0.819028
0.750225 0.916457 0.808942
0.829633 0.914778 0.806287
0.903181 0.914824 0.806378
0 0 0.924697
0 0 0.924544
0.112581 0 0.919722
0.311315 0 0.906157
0.474647 0 0.891737
0.603204 0 0.880003
0.703883 0 0.877119
0.789181 0 0.88394
0.870298 0 0.895598
0 0.08925 0.926589
0 0.0918746 0.930007
0.125063 0.0921035 0.930312
0.329 0.0865949 0.923156
0.4934 0.081117 0.916045
0.622919 0.0780957 0.912123
0.728649 0.0817884 0.916915
0.818265 0.0923934 0.930678
0.902739 0.105638 0.94786
0 0.202335 0.927337
0 0.210773 0.938293
0.144167 0.217044 0.946426
0.353017 0.217304 0.946777
0.515496 0.216831 0.946151
0.644678 0.217548 0.947082
0.752209 0.223468 0.954772
0.842405 0.234806 0.969482
0.926284 0.24773 0.986206
0 0.34519 0.921309
0 0.358358 0.938231
0.149035 0.367941 0.9505
0.359274 0.369909 0.953033
0.52015 0.369635 0.952682
0.648447 0.370001 0.95314
0.755886 0.375921 0.960693
0.846357 0.387823 0.97583
0.930632 0.401587 0.993225
0 0.502724 0.921523
0 0.515267 0.938201
0.148562 0.524102 0.950103
0.358907 0.525994 0.952667
0.520378 0.526238 0.952987
0.648844 0.526802 0.95378
0.755764 0.531746 0.96051
0.844999 0.541329 0.973648
0.927337 0.551629 0.987915
0 0.6392 0.924636
0 0.650278 0.942077
0.153079 0.657786 0.953887
0.36144 0.658625 0.955215
0.52047 0.657298 0.953124
0.646708 0.655528 0.950347
0.750713 0.656825 0.952377
0.836484 0.661646 0.95996
0.915084 0.66688 0.9682
0 0.758526 0.949569
0 0.767803 0.964187
0.174655 0.772778 0.972015
0.374273 0.770413 0.968277
0.525628 0.765408 0.960418
0.647456 0.759777 0.951553
0.747707 0.757229 0.94754
0.829816 0.758328 0.949264
0.905028 0.760067 0.95201
0 0.862852 0.984909
0.0305638 0.868376 0.993591
0.201724 0.869459 0.9953
0.390219 0.863294 0.985595
0.5337 0.854627 0.971954
0.651347 0.845624 0.957809
0.748745 0.840177 0.949233
0.828595 0.838956 0.947311
0.902495 0.838972 0.947326
0 0.952041 1
0.0507515 0.953979 1
0.215366 0.951858 1
0.396307 0.942992 0.993393
0.536828 0.932235 0.976455
0.652659 0.921721 0.959899
0.749096 0.915297 0.949798
0.82855 0.913664 0.947219
0.902571 0.913817 0.947448
0 0 1
0 0 1
0.112856 0 1
0.312016 0 1
0.475639 0 1
0.604425 0 1
0.705608 0 1
0.791409 0 1
0.873045 0 1
0 0.0899214 1
0 0.0930495 1
0.127764 0.0938735 1
0.332158 0.0889601 1
0.496315 0.0841077 1
0.625834 0.0816815 1
0.731929 0.0858473 1
0.821775 0.0967575 1
0.906081 0.11014 1
0 0.204929 1
0 0.213993 1
0.150027 0.220813 1
0.358434 0.221485 1
0.5196 0.221256 1
0.648325 0.222065 1
0.75581 0.227939 1
0.845853 0.239078 1
0.929839 0.252155 1
0 0.349508 1
0 0.36289 1
0.156039 0.372534 1
0.364935 0.374395 1
0.524102 0.373999 1
0.652033 0.374517 1
0.759533 0.380514 1
0.849989 0.392447 1
0.934188 0.406104 1
0 0.506966 1
0 0.519478 1
0.155505 0.528389 1
0.364736 0.530312 1
0.524483 0.530495 1
0.652338 0.530938 1
0.759075 0.535637 1
0.848051 0.544884 1
0.930053 0.554757 1
0 0.642924 1
0 0.653941 1
0.15967 0.661295 1
0.366552 0.661921 1
0.523827 0.660304 1
0.649287 0.658167 1
0.752895 0.659052 1
0.838285 0.663493 1
0.916518 0.668345 1
0 0.761715 1
0.00123598 0.770687 1
0.179263 0.775265 1
0.377462 0.772488 1
0.527504 0.767117 1
0.648753 0.761105 1
0.748638 0.75819 1
0.830427 0.758938 1
0.905364 0.760418 1
0 0.864805 1
0.033463 0.869932 1
0.203845 0.870649 1
0.391196 0.864118 1
0.534264 0.855146 1
0.651621 0.845914 1
0.748837 0.840269 1
0.828565 0.838926 1
0.902388 0.838865 1
0 0.952728 1
0.051545 0.954391 1
0.215732 0.952056 1
0.396368 0.943023 1
0.536751 0.932174 1
0.652552 0.921614 1
0.748989 0.91519 1
0.828504 0.913619 1
0.902449 0.913695 1
